svg/part/dental_fill.svg

<?xml version="1.0" encoding="UTF-8"?>
<svg width="24px" height="24px" viewBox="0 0 24 24" version="1.1" xmlns="http://www.w3.org/2000/svg" xmlns:xlink="http://www.w3.org/1999/xlink">
    <title>dental_fill</title>
    <g id="Icon" stroke="none" stroke-width="1" fill="none" fill-rule="evenodd">
        <g id="Part" transform="translate(-624.000000, -48.000000)">
            <g id="dental_fill" transform="translate(624.000000, 48.000000)">
                <path d="M24,0 L24,24 L0,24 L0,0 L24,0 Z M12.5934901,23.257841 L12.5819402,23.2595131 L12.5108777,23.2950439 L12.4918791,23.2987469 L12.4918791,23.2987469 L12.4767152,23.2950439 L12.4056548,23.2595131 C12.3958229,23.2563662 12.3870493,23.2590235 12.3821421,23.2649074 L12.3780323,23.275831 L12.360941,23.7031097 L12.3658947,23.7234994 L12.3769048,23.7357139 L12.4804777,23.8096931 L12.4953491,23.8136134 L12.4953491,23.8136134 L12.5071152,23.8096931 L12.6106902,23.7357139 L12.6232938,23.7196733 L12.6232938,23.7196733 L12.6266527,23.7031097 L12.609561,23.275831 C12.6075724,23.2657013 12.6010112,23.2592993 12.5934901,23.257841 L12.5934901,23.257841 Z M12.8583906,23.1452862 L12.8445485,23.1473072 L12.6598443,23.2396597 L12.6498822,23.2499052 L12.6498822,23.2499052 L12.6471943,23.2611114 L12.6650943,23.6906389 L12.6699349,23.7034178 L12.6699349,23.7034178 L12.678386,23.7104931 L12.8793402,23.8032389 C12.8914285,23.8068999 12.9022333,23.8029875 12.9078286,23.7952264 L12.9118235,23.7811639 L12.8776777,23.1665331 C12.8752882,23.1545897 12.8674102,23.1470016 12.8583906,23.1452862 L12.8583906,23.1452862 Z M12.1430473,23.1473072 C12.1332178,23.1423925 12.1221763,23.1452606 12.1156365,23.1525954 L12.1099173,23.1665331 L12.0757714,23.7811639 C12.0751323,23.7926639 12.0828099,23.8018602 12.0926481,23.8045676 L12.108256,23.8032389 L12.3092106,23.7104931 L12.3186497,23.7024347 L12.3186497,23.7024347 L12.3225043,23.6906389 L12.340401,23.2611114 L12.337245,23.2485176 L12.337245,23.2485176 L12.3277531,23.2396597 L12.1430473,23.1473072 Z" id="MingCute" fill-rule="nonzero"></path>
                <path d="M5.41036,3.65404 C6.14253,3.21892 7.01101,3 8.00012,3 C8.97577,3 9.80757,3.49312 10.3817,3.83348 C10.8685,4.12207 11.4118,4.5 12.0001,4.5 C12.5884,4.5 13.1317,4.12208 13.6185,3.8335 C14.1926,3.49315 15.0244,3 16.0001,3 C16.9892,3 17.8577,3.21897 18.5898,3.65409 C19.3224,4.08943 19.8629,4.7082 20.2463,5.42206 C20.9962,6.81838 21.1665,8.61363 21.063,10.3629 C20.9581,12.1368 20.5634,13.9932 20.0618,15.6073 C19.5643,17.2083 18.9384,18.6455 18.3322,19.5548 C17.6364,20.5983 16.6693,21.1167 15.6437,20.9728 C14.7029,20.8408 13.9722,20.1803 13.6057,19.4472 C13.2147,18.6653 13.0345,17.7919 12.6911,16.9892 C12.5217,16.593 12.3583,16.3128 12.2056,16.1436 C12.0469,15.9679 11.9491,15.9726 11.7946,16.1436 C11.6419,16.3128 11.4785,16.593 11.3091,16.9892 C10.9655,17.7923 10.7857,18.665 10.3945,19.4472 C10.028,20.1803 9.29724,20.8408 8.35651,20.9728 C7.33081,21.1167 6.36375,20.5983 5.66805,19.5547 C5.06184,18.6454 4.43592,17.2082 3.93841,15.6072 C3.43682,13.9931 3.04213,12.1367 2.93721,10.3628 C2.83375,8.61358 3.00397,6.81833 3.75391,5.42201 C4.1373,4.70815 4.67783,4.08938 5.41036,3.65404 Z" id="路径" fill="#09244B"></path>
            </g>
        </g>
    </g>
</svg>

<svg xmlns="http://www.w3.org/2000/svg" width="24" height="24"><g fill="none" fill-rule="evenodd"><path d="M24 0v24H0V0h24ZM12.593 23.258l-.011.002-.071.035-.02.004-.014-.004-.071-.035c-.01-.004-.019-.001-.024.005l-.004.01-.017.428.005.02.01.013.104.074.015.004.012-.004.104-.074.012-.016.004-.017-.017-.427c-.002-.01-.009-.017-.017-.018Zm.265-.113-.013.002-.185.093-.01.01-.003.011.018.43.005.012.008.007.201.093c.012.004.023 0 .029-.008l.004-.014-.034-.614c-.003-.012-.01-.02-.02-.022Zm-.715.002a.023.023 0 0 0-.027.006l-.006.014-.034.614c0 .012.007.02.017.024l.015-.002.201-.093.01-.008.004-.011.017-.43-.003-.012-.01-.01-.184-.092Z"/><path fill="#09244B" d="M5.41 3.654C6.143 3.219 7.011 3 8 3c.976 0 1.808.493 2.382.833.486.29 1.03.667 1.618.667.588 0 1.132-.378 1.618-.667C14.193 3.494 15.025 3 16 3c.99 0 1.858.219 2.59.654.732.435 1.273 1.054 1.656 1.768.75 1.396.92 3.192.817 4.94-.105 1.775-.5 3.631-1.001 5.245-.498 1.601-1.124 3.038-1.73 3.948-.696 1.043-1.663 1.562-2.688 1.418-.941-.132-1.672-.793-2.038-1.526-.391-.782-.572-1.655-.915-2.458-.17-.396-.333-.676-.485-.845-.16-.176-.257-.171-.411 0-.153.169-.316.449-.486.845-.343.803-.523 1.676-.914 2.458-.367.733-1.098 1.394-2.038 1.526-1.026.144-1.993-.375-2.689-1.418-.606-.91-1.232-2.347-1.73-3.948-.501-1.614-.896-3.47-1-5.244-.104-1.75.066-3.545.816-4.941.383-.714.924-1.333 1.656-1.768Z"/></g></svg>
